X:29
T:Das Wandern ist des Mllers Lust
S:Caarl Zllner
B:Frau Nachtigall (Straburg - 1928)
Z:<anamnese@laposte.net> -- http://anamnese.fr.st
N:p.91
M:2/4
L:1/8
Q:1/4=125
K:A
E | A>E C D | E>F E A | c>E A B | c>d c A |
 (c2B2) | A2 z E | B B c/B/ ^A/B/ |
 G B E E | B B c/B/ ^A/B/ | G B E E | 
 F G A B | c>B A c | (e2G2) | A2 z2 |]
